!!!OTL: ES TRUG EIN JAEGER EIN GRUENEN HUT
!!!ARE: Europa, Mitteleuropa, Deutschland, Altmark
!!!SCT: E1456
!!!YEM: Copyright 1995, estate of Helmut Schaffrath.
**kern
*ICvox
*Ivox
!! Mixed meters:  6/8; 3/4
*M6/8
*k[f#]
*G:
=1
{8d
8g
8a
8b
8a
8g
*M3/4
=2
*M3/4
8cc
8a
4.g}
{8fn
=3
*M3/4
8e
8fn
4.g
8d
=4
*M3/4
8g
8e
4c
4r}
=5
*M3/4
{4g
8d
8c
8e
8d
=6
*M3/4
4g
8d
16c
16c
16e
16e
8d}
=7
*M3/4
{8d
8g
8a
8b
8a
8g
=8
8cc
8a
4g
4r}
==
!!!AGN: Staende -, Jaeger - Lied, Liebe
!!!ONB: ESAC (Essen Associative Code) Database: ERK3
!!!AMT: irregular
!!!AIN: vox
!!!EED: Helmut Schaffrath
!!!EEV: 1.0
*-
